src/assets/duotone/HeartAdd.svg

<svg width="24" height="24" viewBox="0 0 24 24"  xmlns="http://www.w3.org/2000/svg">
<path d="M20.6799 13.9104V13.9004C19.7999 12.9704 18.5699 12.4004 17.1999 12.4004C14.5499 12.4004 12.3999 14.5504 12.3999 17.2004C12.3999 18.4304 12.8699 19.5504 13.6299 20.4004C14.5099 21.3804 15.7799 22.0004 17.1999 22.0004C19.8499 22.0004 21.9999 19.8504 21.9999 17.2004C21.9999 15.9304 21.4999 14.7704 20.6799 13.9104ZM18.9899 18.0104H17.9499V19.1004C17.9499 19.5104 17.6099 19.8504 17.1999 19.8504C16.7899 19.8504 16.4499 19.5104 16.4499 19.1004V18.0104H15.4099C14.9899 18.0104 14.6599 17.6804 14.6599 17.2604C14.6599 16.8504 14.9799 16.5204 15.3999 16.5104H16.4499V15.5104C16.4499 15.4904 16.4499 15.4704 16.4599 15.4504C16.4799 15.0704 16.8099 14.7604 17.1999 14.7604C17.5999 14.7604 17.9299 15.0804 17.9499 15.4804V16.5104H18.9899C19.4099 16.5104 19.7399 16.8504 19.7399 17.2604C19.7399 17.6804 19.4099 18.0104 18.9899 18.0104Z" />
<path opacity="0.4" d="M22 8.68961C22 9.87961 21.81 10.9796 21.48 11.9996C21.27 12.6696 21 13.3096 20.68 13.8996C19.8 12.9696 18.57 12.3996 17.2 12.3996C14.55 12.3996 12.4 14.5496 12.4 17.1996C12.4 18.4296 12.87 19.5496 13.63 20.3996C13.26 20.5696 12.92 20.7096 12.62 20.8096C12.28 20.9296 11.72 20.9296 11.38 20.8096C8.97001 19.9896 4.10002 16.9996 2.52002 11.9996C2.19002 10.9796 2 9.87961 2 8.68961C2 5.59961 4.49 3.09961 7.56 3.09961C9.37 3.09961 10.99 3.97959 12 5.32959C13.01 3.97959 14.63 3.09961 16.44 3.09961C19.51 3.09961 22 5.59961 22 8.68961Z" />
</svg>

<?xml version="1.0" encoding="UTF-8"?>
<svg width="24" height="24" viewBox="0 0 24 24" xmlns="http://www.w3.org/2000/svg">
 <path d="m20.68 13.91v-0.01c-0.88-0.93-2.11-1.5-3.48-1.5-2.65 0-4.8 2.15-4.8 4.8 0 1.23 0.47 2.35 1.23 3.2 0.88 0.98 2.15 1.6 3.57 1.6 2.65 0 4.8-2.15 4.8-4.8 0-1.27-0.5-2.43-1.32-3.29zm-1.69 4.1h-1.04v1.09c0 0.41-0.34 0.75-0.75 0.75s-0.75-0.34-0.75-0.75v-1.09h-1.04c-0.42 0-0.75-0.33-0.75-0.75 0-0.41 0.32-0.74 0.74-0.75h1.05v-1c0-0.02 0-0.04 0.01-0.06 0.02-0.38 0.35-0.69 0.74-0.69 0.4 0 0.73 0.32 0.75 0.72v1.03h1.04c0.42 0 0.75 0.34 0.75 0.75 0 0.42-0.33 0.75-0.75 0.75z"/>
 <path d="m22 8.6896c0 1.19-0.19 2.29-0.52 3.31-0.21 0.67-0.48 1.31-0.8 1.9-0.88-0.93-2.11-1.5-3.48-1.5-2.65 0-4.8 2.15-4.8 4.8 0 1.23 0.47 2.35 1.23 3.2-0.37 0.17-0.71 0.31-1.01 0.41-0.34 0.12-0.9 0.12-1.24 0-2.41-0.82-7.28-3.81-8.86-8.81-0.33-1.02-0.52002-2.12-0.52002-3.31 0-3.09 2.49-5.59 5.56-5.59 1.81 0 3.43 0.87998 4.44 2.23 1.01-1.35 2.63-2.23 4.44-2.23 3.07 0 5.56 2.5 5.56 5.59z" opacity=".4"/>
</svg>
